X: 17028
T: Heartland Part 2
R: reel
M: 4/4
K: Adorian
|A,8|G,8|
|:A,2(3A,A,A, CA,DA,|EA,CD EDEB|EDAE DGED|GEDF DB,EA,|
(3A,A,A, (3A,A,A, CA,DA,|EA,CD EDEB|EDAE DGED|(3FDB, EA,- A,A,G,A,|
zA, (3A,A,A, CA,DA,|EA,CD EDEB|EDAE DGED|GEDF DB,EA,|
A,A, (3A,A,A, CA,DA,|EA,CD EDEB|EDAE DGDD|(3BcB AG ABcd|
eEdE cEBE|(3BcB AG FGAB|cEEB EEAE|(3AGF ED EFGA|
eEdE cEBE|(3BcB AG FGAB|cEEB EEAE|(3AGF ED Ez (3Bcd|
eEdE cEBE|(3BcB AG FGAB|cEEB EEAE|(3ABA GF EFGA|
BDGB EGcG|AdAd efgf|(3gfe dc BcBA|GFGF EDCB,:|
A,8|B,8|C8|D8|
E8|F8|G8|zEcE BEAE|(3GGG GEGELALA|

